X:1
T:Promenade
T:Promenade
T:Modest Mussorgsky 
T:Vincent
C:Vincent
%%score { ( 1 3 ) | 2 }
L:1/8
Q:1/4=90
M:5/4
K:Bb
V:1 treble nm="Piano" snm="Pno."
V:3 treble 
V:2 bass 
V:1
!f! !tenuto!G2 !tenuto!F2 !tenuto!B2 (!tenuto!cf !tenuto!d2) | %1
[M:6/4] (!tenuto!cf !tenuto!d2) !tenuto!B2 !tenuto!c2 !tenuto!G2 !tenuto!F2 | %2
[M:5/4] [B,DG]2 [A,CF]2 [B,Dd]2 [CA]2 [FAd]2 |[M:6/4] [CA]2 [FBd]2 [DGB]2 [=EGc]2 [G,CG]2 [A,CF]2 | %4
[M:5/4] !tenuto!F2 !tenuto!G2 !tenuto!D2 (!tenuto!FG !tenuto!C2) | %5
[M:6/4] (!tenuto!GA !tenuto!F2) [Ff]2 [Fd]2 F2 F2 | %6
[M:5/4] !tenuto!F2 !tenuto!G2 !tenuto!D2 (!tenuto!FG !tenuto!E2) | %7
[M:6/4] (Bc [F_A]2) [A_a]2 [Af]2 A2 A2 | [_A,_A]2 [B,B]2 [A,A]2 [B,B][Cc][Ee][B,B] [A,A]2 | %9
 [_DF_A_d][EAce] [FAdf][A_a][_GBe_g][FAdf] [EAce][Gg][FBdf][Dd] [EAce]2 | %10
[M:5/4] [_A,_A]2 [B,B]2 [A,A]2 [B,B][Cc][Ee][B,B] | %11
[M:6/4] [Cc]2 [Dd]2 [Cc]2 [Dd][Ff][Gg][Dd] [Cc]2 | %12
 [FAcf][Gc=eg] [Acfa][cc'][Bdgb][Acfa] [Gceg][Bb][Adfa][Ff] [Gceg]2 | a=e x2 x8 | %14
 fc x2 x2 x2 fc x2 | [Gc]2 [CFA]2 [DFB]2 [Gc]2 [CFA]2 Bd | %16
 [=EGc]2 [CDFA]2 [EGc]2 [Ff]2 [_EGBe][Dd][CFAc][DFB] | %17
 [CFc]2 [DFd]2 [FAcf]2 [GBeg][Bb] [Ff]2 [Gg]2 | [Ff]2 [EGBe][Dd][CFAc][DFB] [CFc]2 [DFd]2 [FAcf]2 | %19
 [GBeg][Bb] [Ff]2 [Gg]2 [Ff]2 G2 F2 | [GB=eg][Bb] [Ff]2 [Gg]2 [Ff]2 [B,EG]2 [A,CF]2 | %21
 [B,FB]2 [CFAc][Ff] [DFBd]2 [CFAc][Ff] [DFBd]2 [B,DFB]2 | %22
 [C=EGc]2 [G,CEG]2 [A,CF]2 [G,DG]2 [A,CF]2 [B,FB]2 | %23
 [CFAc][Ff] [DFBd]2 [B,DGB]2 [EGce]2 [CFAc]2 [DFB]2 |] %24
V:2
 z10 |[M:6/4] z12 |[M:5/4] [G,,G,]2 [A,,F,]2 [G,,G,]2 [F,,F,]2 [D,,D,]2 | %3
[M:6/4] [F,,F,]2 [B,,B,]2 [G,,G,]2 [C,,C,]2 [=E,,=E,]2 [F,,F,]2 |[M:5/4] z10 | %5
[M:6/4] z2 z2 [F,,F,]2 [B,,B,]2 [G,,G,]2 [F,,F,]2 |[M:5/4] z10 | %7
[M:6/4] z2 z2 [_A,,_A,]2 [_D,_D]2 [B,,B,]2 [A,,A,]2 | %8
 [_G,,,_G,,]4 [F,,,F,,]2 [G,,,G,,]2 [G,,,G,,]2 [G,,_G,]2 | %9
 [F,,F,][E,,E,] [_D,,_D,]2 [E,,E,][F,,F,] [_A,,_A,]2 [B,,B,]2 [A,,A,]2 | %10
[M:5/4] [_G,,,_G,,]4 [F,,,F,,]2 [G,,,G,,]2 [G,,_G,]2 | %11
[M:6/4] [B,,,B,,]4 [A,,,A,,]2 [B,,,B,,]2 [B,,,B,,]2 [B,,B,]2 | %12
 [A,,A,][G,,G,] [F,,F,]2 [G,,G,][A,,A,] [C,C]2 [D,D]2 [C,C]2 | %13
 [A,,A,]2 [B,,B,]2 [F,,F,]2 [G,,G,]2 [F,,F,]2 [G,,G,]2 | %14
 [D,,D,]2 [G,,G,]2 [D,,D,]2 [G,,G,]2 [D,,D,]2 [G,,G,]2 | %15
 [C,,C,]2 [F,,F,]2 [G,,G,]2 [C,,C,]2 [F,,F,]2 [G,,G,]2 | %16
 [C,,C,]2 F,,2 [C,,C,]2 [F,,,F,,]2 [G,,,G,,]2 [A,,,A,,][B,,,B,,] | %17
 [A,,,A,,]2 [B,,,B,,]2 [A,,,A,,]2 [G,,,G,,]2 [F,,,F,,]2 [G,,,G,,]2 | %18
 [F,,,F,,]2 [G,,,G,,]2 [A,,,A,,][B,,,B,,] [A,,,A,,]2 [B,,,B,,]2 [A,,,A,,]2 | %19
 [G,,,G,,]2 [F,,,F,,]2 [G,,,G,,]2 [F,,,F,,]2 G,2 F,2 | %20
 [C,,C,]2 [F,,,F,,]2 [G,,,G,,]2 [F,,,F,,]2 [E,,E,]2 [F,,F,]2 | %21
 [D,,D,]2 [C,,C,]2 [B,,,B,,]2 [A,,,A,,]2 [G,,,G,,]2 [G,,G,]2 | %22
 [C,,C,]2 [=E,,=E,]2 [F,,F,]2 [B,,,B,,]2 [A,,,A,,]2 [G,,,G,,]2 | %23
 [F,,,F,,]2 [B,,,B,,]2 [G,,G,]2 [C,,C,]2 [F,,F,]2 [B,,B,]2 |] %24
V:3
 x10 |[M:6/4] x12 |[M:5/4] x6 cf x2 |[M:6/4] cf x10 |[M:5/4] x10 |[M:6/4] x8 cB x2 |[M:5/4] x10 | %7
[M:6/4] x8 e_d x2 | E6 E6 | x12 |[M:5/4] E6 E4 |[M:6/4] G6 G4 x2 | x12 | %13
 [Ac]2 [Fdf]2 [Aca]2 [=EBd]2 [Aca]2 [EBd]2 | [FA]2 [FBd]2 [FAf]2 [FBd]2 [FA]2 [FBd]2 | %15
 E=E x4 _E=E x2 [DF]2 | x12 | x12 | x12 | x12 | x12 | x12 | x12 | x12 |] %24

